X:1
T:In the county of Wexford not far from Tughmon
M:2/4
L:1/8
N:"Andante spirituoso e marcato"
S:Stanford/Petrie (1905), No. 780
Z:AK/Fiddler's Companion
K:Emin
G>A | B2 E>F | G2 B,>C | DE E>E | E2 zE |
E^G Bc | d2 ef | ed B>c | B2 zE |
E^G B>c | d2 ef | ed B>c | B2 G>A |
B2 G>A | B2 E>F | G2 B,>C | DE E>E | E2 ||

